Yaru++/emotes/16/face-raspberry-squint.svg

<svg height="16" width="16" xmlns="http://www.w3.org/2000/svg"><path clip-rule="evenodd" d="m8 0c-4.4182857 0-8 3.5817143-8 8 0 4.418286 3.5817143 8 8 8 4.418286 0 8-3.581714 8-8 0-4.4182857-3.581714-8-8-8zm-5.7142857 9.2142857c1.1389257.7278857 4.5902857 1.0714283 5.7142857 1.0714283l.1792686.000343h.0000228c.5928343.0016 1.5627776.0041 2.5706516-.107417 1.117257-.123737 2.281143-.4109486 2.964343-.9642857v.5714286c0 .5046171-.861029 1.0503311-2.464229 1.3571881l.285714.607086c.318858.689486.0952 1.457829-.5 1.749943l-.285714.142857c-.595234.292114-1.342743-.03349-1.678628-.714286l-.7142861-1.464228c-.00821-.01669-.01336-.0264-.017611-.0344l-.0000457-.000114h-.0000228-.0000115c-.00584-.01097-.00997-.01886-.017954-.03692-.072491.0008-.14008.000572-.21016.000229h-.0000571-.0000571-.0000686l-.1110857-.000229c-3.7209143 0-5.7142857-.998514-5.7142857-1.6070626zm1.1337143-4.6428571.5897143-.9817143 3.67312 2.2045714-3.67312 2.2057143-.5897143-.9828571 2.0376685-1.2228572zm4.8970514 1.224 3.674377-2.2057143.589714.9817143-2.038971 1.2228571 2.038971 1.2228572-.589714.9828571z" fill="#eab305" fill-rule="evenodd" stroke-width="1.142857"/><path d="m8.2421875 10.96875h.0390625c.012.027.01325.0285.03125.0625l.625 1.28125c.147.2975.3829375.517109.6484375.630859s.5603125.121641.8203125-.0059l.25-.125c.2605-.128.440281-.359266.519531-.634766s.05747-.594484-.08203-.896484l-.111329-.236287-.173828-.294922c.01493.0041.0282.01306.04297.01758l-.007814-.01758c.0033-.000637.0045-.0013.0078-.002a2.9441256 2.4135832 0 0 0 -1.0312375-.160109 2.9441256 2.4135832 0 0 0 -1.578125.380859z" fill="#f22c42" stroke-width="1.23188" transform="matrix(1.1428571 0 0 1.1428571 -1.15171556223 -1.14045653608)"/><g stroke-width="1.142857"><path d="m8 0c-4.4182857 0-8 3.5817143-8 8 0 .0965885.0122303.1899542.015625.2857143.1518935-4.2846369 3.6626777-7.71428573 7.984375-7.71428573 4.321697 0 7.832481 3.42964883 7.984375 7.71428573.003395-.0957601.015625-.1891258.015625-.2857143 0-4.4182857-3.581714-8-8-8zm-4.328125 4.7232143-.2522321.4196428 1.5625.9375.4754464-.2857142zm8.65625 0-1.785715 1.0714286.475447.2857142 1.5625-.9375zm-5.1205357 1.3571428-3.1986607 1.9196429-.3370536-.5625-.2522321.1517857.5892857.9821429 3.6741071-2.2053572zm1.5848214 0-.4754464.2857143 3.6741077 2.2053572.589285-.9821429-.252232-.1517857-.337053.5625zm-6.5066964 3.7053572v.5714287c0 .608548 1.9933714 1.607143 5.7142857 1.607143h.1116071c.07008.000343.13733.0008.2098215 0 .00799.01806.012017.02698.017857.03795.00425.008.00965.0168.017857.03348l.7142864 1.464284c.335885.6808 1.083337 1.0064 1.678571.714286l.285714-.142857c.488406-.239702.706859-.800669.600447-1.375-.078208.347121-.279716.646162-.600447.803571l-.285714.142857c-.595234.292114-1.342686-.03349-1.678571-.714286l-.7142861-1.464285c-.00821-.01669-.013606-.02548-.017857-.03348-.00584-.01097-.00987-.01989-.017857-.03795-.072492.0008-.1397414.000343-.2098215 0h-.1116074c-3.7209143 0-5.7142857-.998594-5.7142857-1.6071427zm11.4285717 0c0 .5046167-.861086 1.0502857-2.464286 1.3571427l.241072.511161c1.432648-.314157 2.223214-.820852 2.223214-1.296875z" fill="#fff" opacity=".3"/><path d="m4.0089286 3.0178571-.5892857.9821429.2522321.1517857.3370536-.5625 3.1986607 1.9196429.4754464-.2857143zm7.9821434 0-3.6741077 2.2053572.4754464.2857143 3.1986613-1.9196429.337053.5625.252232-.1517857zm-7.0089291 2.4910715-1.5625.9375.2522321.4196428 1.7857143-1.0714285zm6.0357141 0-.475447.2857143 1.785715 1.0714285.252232-.4196428zm-11.002232 2.2053571c-.0033947.0957601-.015625.1891258-.015625.2857143 0 4.418286 3.5817143 8 8 8 4.418286 0 8-3.581714 8-8 0-.0965885-.01223-.1899542-.015625-.2857143-.151894 4.2846363-3.662678 7.7142853-7.984375 7.7142853-4.3216973 0-7.8324815-3.429649-7.984375-7.7142853zm2.2700893.9285714v.5714286c1.1389257.7278857 4.5902857 1.0714283 5.7142857 1.0714283h.1785714c.5928343.0016 1.5635546.0044 2.5714286-.107143 1.117257-.123737 2.281086-.4109481 2.964286-.9642853v-.5714286c-.6832.5533372-1.847029.8405486-2.964286.9642858-1.007874.1115314-1.9785943.1087428-2.5714286.1071428h-.1785714c-1.124 0-4.57536-.3435428-5.7142857-1.0714286zm9.2053577 2.4397329c-.08606.01887-.150225.04288-.241072.06027l.285714.60714c.05721.123711.07718.249418.100447.375.06693-.297054.04659-.62848-.100447-.946429z" fill="#050400" opacity=".2"/></g></svg>

<?xml version="1.0" encoding="UTF-8" standalone="no"?>
<svg
   xmlns:dc="http://purl.org/dc/elements/1.1/"
   xmlns:cc="http://creativecommons.org/ns#"
   xmlns:rdf="http://www.w3.org/1999/02/22-rdf-syntax-ns#"
   xmlns:svg="http://www.w3.org/2000/svg"
   xmlns="http://www.w3.org/2000/svg"
   xmlns:sodipodi="http://sodipodi.sourceforge.net/DTD/sodipodi-0.dtd"
   xmlns:inkscape="http://www.inkscape.org/namespaces/inkscape"
   height="16"
   width="16"
   version="1.1"
   id="svg4"
   sodipodi:docname="face-raspberry-squint.svg"
   inkscape:version="0.92.4 (5da689c313, 2019-01-14)">
  <metadata
     id="metadata10">
    <rdf:RDF>
      <cc:Work
         rdf:about="">
        <dc:format>image/svg+xml</dc:format>
        <dc:type
           rdf:resource="http://purl.org/dc/dcmitype/StillImage" />
      </cc:Work>
    </rdf:RDF>
  </metadata>
  <defs
     id="defs8" />
  <sodipodi:namedview
     pagecolor="#ffffff"
     bordercolor="#666666"
     borderopacity="1"
     objecttolerance="10"
     gridtolerance="10"
     guidetolerance="10"
     inkscape:pageopacity="0"
     inkscape:pageshadow="2"
     inkscape:window-width="1920"
     inkscape:window-height="1016"
     id="namedview6"
     showgrid="false"
     inkscape:zoom="59.928571"
     inkscape:cx="4.829559"
     inkscape:cy="8"
     inkscape:window-x="0"
     inkscape:window-y="27"
     inkscape:window-maximized="1"
     inkscape:current-layer="svg4" />
  <path
     d="M 8,0 C 3.5817143,0 0,3.5817143 0,8 c 0,4.418286 3.5817143,8 8,8 4.418286,0 8,-3.581714 8,-8 C 16,3.5817143 12.418286,0 8,0 Z M 2.2857143,9.2142857 C 3.42464,9.9421714 6.876,10.285714 8,10.285714 l 0.1792686,3.43e-4 h 2.28e-5 c 0.5928343,0.0016 1.5627776,0.0041 2.5706516,-0.107417 1.117257,-0.123737 2.281143,-0.4109486 2.964343,-0.9642857 v 0.5714286 c 0,0.5046171 -0.861029,1.0503311 -2.464229,1.3571881 l 0.285714,0.607086 c 0.318858,0.689486 0.0952,1.457829 -0.5,1.749943 l -0.285714,0.142857 C 10.154823,13.934971 9.407314,13.609367 9.071429,12.928571 L 8.3571429,11.464343 c -0.00821,-0.01669 -0.01336,-0.0264 -0.017611,-0.0344 l -4.57e-5,-1.14e-4 h -2.28e-5 -1.15e-5 c -0.00584,-0.01097 -0.00997,-0.01886 -0.017954,-0.03692 -0.072491,8e-4 -0.14008,5.72e-4 -0.21016,2.29e-4 h -5.71e-5 -5.71e-5 -6.86e-5 l -0.1110857,-2.29e-4 c -3.7209143,0 -5.7142857,-0.998514 -5.7142857,-1.6070626 z M 3.4194286,4.5714286 4.0091429,3.5897143 7.6822629,5.7942857 4.0091429,8 3.4194286,7.0171429 5.4570971,5.7942857 Z m 4.8970514,1.224 3.674377,-2.2057143 0.589714,0.9817143 L 10.5416,5.7942857 12.580571,7.0171429 11.990857,8 Z"
     id="path2"
     style="clip-rule:evenodd;fill:#eab305;fill-opacity:1;fill-rule:evenodd;stroke-width:1.14285719"
     inkscape:connector-curvature="0" />
  <g
     id="g831"
     transform="matrix(1.1428571,0,0,1.1428571,-27.573022,-4.0072853)">
    <path
       inkscape:connector-curvature="0"
       style="opacity:1;fill:#f22c42;fill-opacity:1;stroke-width:1.23187971"
       d="M 8.2421875,10.96875 H 8.28125 c 0.012,0.027 0.01325,0.0285 0.03125,0.0625 l 0.625,1.28125 c 0.147,0.2975 0.3829375,0.517109 0.6484375,0.630859 0.2655,0.11375 0.5603125,0.121641 0.8203125,-0.0059 l 0.25,-0.125 c 0.2605,-0.128 0.440281,-0.359266 0.519531,-0.634766 0.07925,-0.2755 0.05747,-0.594484 -0.08203,-0.896484 L 10.982422,11.044922 10.808594,10.75 c 0.01493,0.0041 0.0282,0.01306 0.04297,0.01758 L 10.84375,10.75 c 0.0033,-6.37e-4 0.0045,-0.0013 0.0078,-0.002 A 2.9441256,2.4135832 0 0 0 9.8203125,10.587891 2.9441256,2.4135832 0 0 0 8.2421875,10.96875 Z"
       id="path855"
       transform="translate(23.118644,2.5084746)" />
  </g>
  <path
     style="opacity:0.3;fill:#ffffff;fill-opacity:1;stroke-width:1.14285719"
     d="M 8,0 C 3.5817143,0 0,3.5817143 0,8 0,8.0965885 0.0122303,8.1899542 0.015625,8.2857143 0.1675185,4.0010774 3.6783027,0.57142857 8,0.57142857 c 4.321697,0 7.832481,3.42964883 7.984375,7.71428573 C 15.98777,8.1899542 16,8.0965885 16,8 16,3.5817143 12.418286,0 8,0 Z m -4.328125,4.7232143 -0.2522321,0.4196428 1.5625,0.9375 0.4754464,-0.2857142 z m 8.65625,0 -1.785715,1.0714286 0.475447,0.2857142 1.5625,-0.9375 z M 7.2075893,6.0803571 4.0089286,8 3.671875,7.4375 3.4196429,7.5892857 4.0089286,8.5714286 7.6830357,6.3660714 Z m 1.5848214,0 L 8.3169643,6.3660714 11.991072,8.5714286 12.580357,7.5892857 12.328125,7.4375 11.991072,8 Z M 2.2857143,9.7857143 v 0.5714287 c 0,0.608548 1.9933714,1.607143 5.7142857,1.607143 h 0.1116071 c 0.07008,3.43e-4 0.13733,8e-4 0.2098215,0 0.00799,0.01806 0.012017,0.02698 0.017857,0.03795 0.00425,0.008 0.00965,0.0168 0.017857,0.03348 L 9.071429,13.5 c 0.335885,0.6808 1.083337,1.0064 1.678571,0.714286 l 0.285714,-0.142857 c 0.488406,-0.239702 0.706859,-0.800669 0.600447,-1.375 C 11.557953,13.04355 11.356445,13.342591 11.035714,13.5 L 10.75,13.642857 C 10.154766,13.934971 9.407314,13.609367 9.071429,12.928571 L 8.3571429,11.464286 c -0.00821,-0.01669 -0.013606,-0.02548 -0.017857,-0.03348 -0.00584,-0.01097 -0.00987,-0.01989 -0.017857,-0.03795 -0.072492,8e-4 -0.1397414,3.43e-4 -0.2098215,0 H 8 c -3.7209143,0 -5.7142857,-0.998594 -5.7142857,-1.6071427 z m 11.4285717,0 C 13.714286,10.290331 12.8532,10.836 11.25,11.142857 l 0.241072,0.511161 c 1.432648,-0.314157 2.223214,-0.820852 2.223214,-1.296875 z"
     id="path831"
     inkscape:connector-curvature="0" />
  <path
     style="opacity:0.2;fill:#050400;fill-opacity:1;stroke-width:1.14285719"
     d="M 4.0089286,3.0178571 3.4196429,4 3.671875,4.1517857 4.0089286,3.5892857 7.2075893,5.5089286 7.6830357,5.2232143 Z m 7.9821434,0 -3.6741077,2.2053572 0.4754464,0.2857143 3.1986613,-1.9196429 0.337053,0.5625 L 12.580357,4 Z m -7.0089291,2.4910715 -1.5625,0.9375 0.2522321,0.4196428 1.7857143,-1.0714285 z m 6.0357141,0 -0.475447,0.2857143 1.785715,1.0714285 0.252232,-0.4196428 z M 0.015625,7.7142857 C 0.0122303,7.8100458 0,7.9034115 0,8 c 0,4.418286 3.5817143,8 8,8 4.418286,0 8,-3.581714 8,-8 C 16,7.9034115 15.98777,7.8100458 15.984375,7.7142857 15.832481,11.998922 12.321697,15.428571 8,15.428571 c -4.3216973,0 -7.8324815,-3.429649 -7.984375,-7.7142853 z M 2.2857143,8.6428571 V 9.2142857 C 3.42464,9.9421714 6.876,10.285714 8,10.285714 h 0.1785714 c 0.5928343,0.0016 1.5635546,0.0044 2.5714286,-0.107143 1.117257,-0.123737 2.281086,-0.4109481 2.964286,-0.9642853 V 8.6428571 C 13.031086,9.1961943 11.867257,9.4834057 10.75,9.6071429 9.742126,9.7186743 8.7714057,9.7158857 8.1785714,9.7142857 H 8 c -1.124,0 -4.57536,-0.3435428 -5.7142857,-1.0714286 z M 11.491072,11.08259 C 11.405012,11.10146 11.340847,11.12547 11.25,11.14286 L 11.535714,11.75 c 0.05721,0.123711 0.07718,0.249418 0.100447,0.375 0.06693,-0.297054 0.04659,-0.62848 -0.100447,-0.946429 z"
     id="path838"
     inkscape:connector-curvature="0" />
</svg>
